!! Stephen C. Foster, "Old Uncle Ned"
!! from 'Stephen Foster Song Book' Dover Publications (New York) pp. 105-107
!! NOTE:  Leading and trailing bars of rest have been omitted.
**kern
*M4/4
*MM82
*G:
4g
=1
8b
8b
4b
8cc
4cc
8cc
=2
8.dd
16dd
8dd
8dd
4g
8r
8a
=3
4b
8b
8b
4b
8a
8g
=4
2.a
8r
8g
=5
4b
4b
4cc
8.cc
16cc
=6
4dd
8dd
8dd
4g
8r
8a
=7
4b
8a
8g
4a
8.a
16b
=8
2.g
4dd
=9
4dd
8.dd
16dd
8dd
8dd
8dd
8dd
=10
{4dd
4cc
4b}
4a
=11
4b
8.b
16b
8b
8b
8.a
16g
=12
2.a
4r
=13
4b
4b
4cc
8.cc
16cc
=14
4dd
4dd#
4ee;
8r
8a
=15
4b
8.a
16g
4a
8.a
16b
=16
2.g
4r
=17
8b
8g
8a
8b
8cc
8a
8b
8cc
=18
4dd
4dd#
4ee;
8r
8a
=19
4b
8.a
16g
4a
8.a
16b
=20
2.g
4r
==
*-
